img/kamisaw_white.svg

<svg width="173" height="35" viewBox="0 0 173 35" fill="none" xmlns="http://www.w3.org/2000/svg">
<rect x="100" y="2" width="73" height="33" rx="16.5" fill="url(#paint0_linear_208_3)"/>
<path d="M118.888 26.264C117.656 26.264 116.475 26.1027 115.346 25.78C114.217 25.4427 113.307 25.01 112.618 24.482L113.828 21.798C114.488 22.2673 115.265 22.656 116.16 22.964C117.069 23.2573 117.986 23.404 118.91 23.404C119.614 23.404 120.179 23.338 120.604 23.206C121.044 23.0593 121.367 22.8613 121.572 22.612C121.777 22.3627 121.88 22.0767 121.88 21.754C121.88 21.3433 121.719 21.0207 121.396 20.786C121.073 20.5367 120.648 20.3387 120.12 20.192C119.592 20.0307 119.005 19.884 118.36 19.752C117.729 19.6053 117.091 19.4293 116.446 19.224C115.815 19.0187 115.236 18.7547 114.708 18.432C114.18 18.1093 113.747 17.684 113.41 17.156C113.087 16.628 112.926 15.9533 112.926 15.132C112.926 14.252 113.161 13.4527 113.63 12.734C114.114 12.0007 114.833 11.4213 115.786 10.996C116.754 10.556 117.964 10.336 119.416 10.336C120.384 10.336 121.337 10.4533 122.276 10.688C123.215 10.908 124.043 11.2453 124.762 11.7L123.662 14.406C122.943 13.9953 122.225 13.6947 121.506 13.504C120.787 13.2987 120.083 13.196 119.394 13.196C118.705 13.196 118.14 13.2767 117.7 13.438C117.26 13.5993 116.945 13.812 116.754 14.076C116.563 14.3253 116.468 14.6187 116.468 14.956C116.468 15.352 116.629 15.6747 116.952 15.924C117.275 16.1587 117.7 16.3493 118.228 16.496C118.756 16.6427 119.335 16.7893 119.966 16.936C120.611 17.0827 121.249 17.2513 121.88 17.442C122.525 17.6327 123.112 17.8893 123.64 18.212C124.168 18.5347 124.593 18.96 124.916 19.488C125.253 20.016 125.422 20.6833 125.422 21.49C125.422 22.3553 125.18 23.1473 124.696 23.866C124.212 24.5847 123.486 25.164 122.518 25.604C121.565 26.044 120.355 26.264 118.888 26.264ZM134.875 26V23.69L134.655 23.184V19.048C134.655 18.3147 134.428 17.7427 133.973 17.332C133.533 16.9213 132.851 16.716 131.927 16.716C131.297 16.716 130.673 16.8187 130.057 17.024C129.456 17.2147 128.943 17.4787 128.517 17.816L127.285 15.418C127.931 14.9633 128.708 14.6113 129.617 14.362C130.527 14.1127 131.451 13.988 132.389 13.988C134.193 13.988 135.594 14.4133 136.591 15.264C137.589 16.1147 138.087 17.442 138.087 19.246V26H134.875ZM131.267 26.176C130.343 26.176 129.551 26.022 128.891 25.714C128.231 25.3913 127.725 24.9587 127.373 24.416C127.021 23.8733 126.845 23.2647 126.845 22.59C126.845 21.886 127.014 21.27 127.351 20.742C127.703 20.214 128.253 19.8033 129.001 19.51C129.749 19.202 130.725 19.048 131.927 19.048H135.073V21.05H132.301C131.495 21.05 130.937 21.182 130.629 21.446C130.336 21.71 130.189 22.04 130.189 22.436C130.189 22.876 130.358 23.228 130.695 23.492C131.047 23.7413 131.524 23.866 132.125 23.866C132.697 23.866 133.211 23.734 133.665 23.47C134.12 23.1913 134.45 22.788 134.655 22.26L135.183 23.844C134.934 24.6067 134.479 25.186 133.819 25.582C133.159 25.978 132.309 26.176 131.267 26.176ZM143.685 26L139.417 14.164H142.651L146.193 24.35H144.653L148.349 14.164H151.253L154.839 24.35H153.299L156.951 14.164H159.987L155.697 26H152.375L149.229 17.266H150.241L146.985 26H143.685Z" fill="white"/>
<path fill-rule="evenodd" clip-rule="evenodd" d="M41.959 11.2934C40.1532 9.72166 37.541 8.93651 34.1225 8.93794C32.5268 8.94018 30.9377 9.14217 29.3925 9.53919C27.9682 9.8781 26.6062 10.4381 25.3564 11.1986L27.9225 16.6422C28.6207 16.1264 29.4043 15.7369 30.2377 15.4914C31.1023 15.2196 32.0032 15.0801 32.9097 15.0776C35.096 15.0776 36.3211 15.857 36.5848 17.4158H33.3421C30.3502 17.4158 28.1163 17.9273 26.6405 18.9502C25.1647 19.9731 24.4283 21.4709 24.4311 23.4435C24.4152 24.5537 24.7045 25.647 25.2678 26.6049C25.8545 27.5683 26.7081 28.3421 27.7257 28.8332C28.8066 29.3806 30.1188 29.6543 31.6624 29.6543C34.4194 29.6543 36.2605 28.6558 37.1858 26.6588V29.2901H44.6678V18.5451C44.6678 15.2824 43.7649 12.8651 41.959 11.2934ZM36.6151 22.784C36.4458 23.3536 36.0962 23.8533 35.6185 24.2085C35.1707 24.524 34.6341 24.69 34.0858 24.6826C33.5762 24.7114 33.0742 24.5492 32.6784 24.2279C32.5125 24.0859 32.3802 23.9091 32.2909 23.7102C32.2015 23.5112 32.1574 23.295 32.1617 23.0771C32.1617 21.9565 32.9811 21.3962 34.6197 21.3962H36.6151V22.784ZM66.649 9.30215L61.4109 18.6183L56.7804 9.30215H48.265V29.2879H55.4984V20.1527L59.4869 27.7169H62.8723L67.0078 20.3359L67.0424 29.2879H74.2758L74.2045 9.30215H66.649ZM77.5985 9.30215V29.3008H85.6642V9.30429L77.5985 9.30215ZM0.335693 29.2857H8.44245V0.352295H0.335693V29.2857Z" fill="white"/>
<path d="M81.6152 7.57153C83.8354 7.57153 85.6361 5.95525 85.6361 3.95969C85.6361 1.96413 83.8354 0.345703 81.6152 0.345703C79.395 0.345703 77.6007 1.96413 77.6007 3.95969C77.6007 5.95525 79.3929 7.57153 81.6152 7.57153ZM14.4199 29.2878H24.148L15.4554 17.9609L23.5059 9.30202H13.994L8.4425 15.0775V21.5943C9.22796 22.6 10.0149 23.6057 10.8032 24.6114C12.0225 26.1716 13.228 27.7304 14.4199 29.2878Z" fill="white"/>
<defs>
<linearGradient id="paint0_linear_208_3" x1="170.5" y1="-0.499997" x2="106.5" y2="35" gradientUnits="userSpaceOnUse">
<stop stop-color="#2B7B6F"/>
<stop offset="1" stop-color="#2B364B"/>
</linearGradient>
</defs>
</svg>

<svg width="173" height="35" fill="none" xmlns="http://www.w3.org/2000/svg"><rect x="100" y="2" width="73" height="33" rx="16.5" fill="url(#paint0_linear_208_3)"/><path d="M118.888 26.264c-1.232 0-2.413-.161-3.542-.484-1.129-.337-2.039-.77-2.728-1.298l1.21-2.684c.66.47 1.437.858 2.332 1.166.909.293 1.826.44 2.75.44.704 0 1.269-.066 1.694-.198.44-.147.763-.345.968-.594.205-.25.308-.535.308-.858 0-.41-.161-.733-.484-.968-.323-.25-.748-.447-1.276-.594a19.287 19.287 0 00-1.76-.44 24.91 24.91 0 01-1.914-.528 8.157 8.157 0 01-1.738-.792 3.992 3.992 0 01-1.298-1.276c-.323-.528-.484-1.203-.484-2.024 0-.88.235-1.68.704-2.398.484-.733 1.203-1.313 2.156-1.738.968-.44 2.178-.66 3.63-.66.968 0 1.921.117 2.86.352.939.22 1.767.557 2.486 1.012l-1.1 2.706a9.002 9.002 0 00-2.156-.902 7.671 7.671 0 00-2.112-.308c-.689 0-1.254.08-1.694.242-.44.161-.755.374-.946.638-.191.25-.286.543-.286.88 0 .396.161.719.484.968.323.235.748.425 1.276.572.528.147 1.107.293 1.738.44.645.147 1.283.315 1.914.506.645.19 1.232.447 1.76.77s.953.748 1.276 1.276c.337.528.506 1.195.506 2.002 0 .865-.242 1.657-.726 2.376-.484.719-1.21 1.298-2.178 1.738-.953.44-2.163.66-3.63.66zM134.875 26v-2.31l-.22-.506v-4.136c0-.733-.227-1.305-.682-1.716-.44-.41-1.122-.616-2.046-.616-.63 0-1.254.103-1.87.308a4.784 4.784 0 00-1.54.792l-1.232-2.398c.646-.455 1.423-.807 2.332-1.056.91-.25 1.834-.374 2.772-.374 1.804 0 3.205.425 4.202 1.276.998.85 1.496 2.178 1.496 3.982V26h-3.212zm-3.608.176c-.924 0-1.716-.154-2.376-.462-.66-.323-1.166-.755-1.518-1.298a3.283 3.283 0 01-.528-1.826c0-.704.169-1.32.506-1.848.352-.528.902-.939 1.65-1.232.748-.308 1.724-.462 2.926-.462h3.146v2.002h-2.772c-.806 0-1.364.132-1.672.396-.293.264-.44.594-.44.99 0 .44.169.792.506 1.056.352.25.829.374 1.43.374.572 0 1.086-.132 1.54-.396.455-.279.785-.682.99-1.21l.528 1.584c-.249.763-.704 1.342-1.364 1.738-.66.396-1.51.594-2.552.594zM143.685 26l-4.268-11.836h3.234l3.542 10.186h-1.54l3.696-10.186h2.904l3.586 10.186h-1.54l3.652-10.186h3.036L155.697 26h-3.322l-3.146-8.734h1.012L146.985 26h-3.3z" fill="#fff"/><path fill-rule="evenodd" clip-rule="evenodd" d="M41.959 11.293c-1.806-1.571-4.418-2.356-7.837-2.355a19.115 19.115 0 00-4.73.601 13.998 13.998 0 00-4.036 1.66l2.566 5.443a7.43 7.43 0 012.316-1.15 8.993 8.993 0 012.672-.414c2.186 0 3.411.779 3.675 2.338h-3.243c-2.992 0-5.226.511-6.701 1.534-1.476 1.023-2.213 2.52-2.21 4.494a6.065 6.065 0 00.837 3.16 5.859 5.859 0 002.458 2.23c1.08.547 2.393.82 3.936.82 2.757 0 4.599-.998 5.524-2.995v2.631h7.482V18.545c0-3.263-.903-5.68-2.709-7.252zm-5.344 11.491c-.17.57-.519 1.07-.997 1.425a2.6 2.6 0 01-1.532.474 2.05 2.05 0 01-1.408-.455 1.479 1.479 0 01-.516-1.15c0-1.122.82-1.682 2.458-1.682h1.995v1.388zM66.65 9.302l-5.238 9.316-4.63-9.316h-8.516v19.986h7.233v-9.135l3.989 7.564h3.385l4.136-7.381.034 8.952h7.234l-.072-19.986H66.65zm10.95 0v19.999h8.065V9.304l-8.066-.002zM.335 29.286h8.106V.352H.336v28.934z" fill="#fff"/><path d="M81.615 7.572c2.22 0 4.021-1.617 4.021-3.612 0-1.996-1.8-3.614-4.02-3.614-2.221 0-4.015 1.618-4.015 3.614 0 1.995 1.792 3.612 4.014 3.612zM14.42 29.288h9.728L15.455 17.96l8.05-8.659h-9.511l-5.551 5.776v6.516c.785 1.006 1.572 2.012 2.36 3.017 1.22 1.56 2.425 3.12 3.617 4.677z" fill="#fff"/><defs><linearGradient id="paint0_linear_208_3" x1="170.5" y1="-.5" x2="106.5" y2="35" gradientUnits="userSpaceOnUse"><stop stop-color="#2B7B6F"/><stop offset="1" stop-color="#2B364B"/></linearGradient></defs></svg>
